X:5
T:Bird in the Bush, The
R:reel
Z:Transcribed by Dave Marshall
M:C|
K:G
|: dge^c d~B3 | dBAB GBAG | E2Ac B~G3|BGBd efge |
d2eB d~B3 | dBAB G2GE | DEGA B2eB | dBAc BGG2:|
|:Bdef g2bg | agef gfed | Bdef ~g2bg | agab ~g3a |
b~g3 agef | ~g3e dBAG | DEGA B2eB | dBAc BGG2:|
